lib/flags/m/KP.svg

<svg xmlns="http://www.w3.org/2000/svg" fill="none" viewBox="0 0 20 15"><mask id="KP_svg__a" width="20" height="15" x="0" y="0" mask-type="alpha" maskUnits="userSpaceOnUse"><path fill="#fff" d="M0 0H20V15H0z"/></mask><g mask="url(#KP_svg__a)"><path fill="#3D58DB" fill-rule="evenodd" d="M0 0V15H20V0H0Z" clip-rule="evenodd"/><mask id="KP_svg__b" width="20" height="15" x="0" y="0" mask-type="alpha" maskUnits="userSpaceOnUse"><path fill="#fff" fill-rule="evenodd" d="M0 0V15H20V0H0Z" clip-rule="evenodd"/></mask><g mask="url(#KP_svg__b)"><path fill="#C51918" stroke="#F7FCFF" stroke-width="1.25" d="M0 3.125H-0.625V3.75V11.25V11.875H0H20H20.625V11.25V3.75V3.125H20H0Z"/><path fill="#F7FCFF" fill-rule="evenodd" d="M6.25 10.625C7.97589 10.625 9.375 9.22589 9.375 7.5C9.375 5.77411 7.97589 4.375 6.25 4.375C4.52411 4.375 3.125 5.77411 3.125 7.5C3.125 9.22589 4.52411 10.625 6.25 10.625Z" clip-rule="evenodd"/><path fill="#C51918" fill-rule="evenodd" d="M6.24691 8.66863L4.54921 9.85L5.14814 7.87032L3.49997 6.62077L5.56783 6.57863L6.24691 4.625L6.926 6.57863L8.99386 6.62077L7.34569 7.87032L7.94462 9.85L6.24691 8.66863Z" clip-rule="evenodd"/></g></g></svg>

<svg xmlns="http://www.w3.org/2000/svg" fill="none" viewBox="0 0 20 15"><g mask="url(#KP_svg__KP_-_Korea_(North)"><path fill="#3D58DB" fill-rule="evenodd" d="M0 0v15h20V0H0z" clip-rule="evenodd"/><g mask="url(#KP_svg__KP_-_Korea_(North)"><path fill="#C51918" stroke="#F7FCFF" stroke-width="1.25" d="M0 3.125h-.625v8.75h21.25v-8.75H0z"/><path fill="#F7FCFF" fill-rule="evenodd" d="M6.25 10.625a3.125 3.125 0 100-6.25 3.125 3.125 0 000 6.25z" clip-rule="evenodd"/><path fill="#C51918" fill-rule="evenodd" d="M6.247 8.669L4.549 9.85l.6-1.98L3.5 6.62l2.068-.041.679-1.954.679 1.954 2.068.042-1.648 1.25.599 1.979-1.698-1.181z" clip-rule="evenodd"/></g></g></svg>
